modules/framework7-icons/icons/settings_fill.svg

<?xml version="1.0" encoding="UTF-8"?>
<svg width="50px" height="50px" viewBox="0 0 50 50" version="1.1" xmlns="http://www.w3.org/2000/svg" xmlns:xlink="http://www.w3.org/1999/xlink">
    <!-- Generator: Sketch 40.1 (33804) - http://www.bohemiancoding.com/sketch -->
    <title>settings_fill</title>
    <desc>Created with Sketch.</desc>
    <defs></defs>
    <g id="Page-1" stroke="none" stroke-width="1" fill="none" fill-rule="evenodd">
        <g id="settings_fill" fill="#000000">
            <path d="M29.6560478,7.60799469 C28.1709063,7.21141304 26.6101423,7 25,7 C19.4314306,7 14.4534615,9.52866068 11.1517067,13.5003682 L18.2503826,19.0464617 C19.8994982,17.1782662 22.3121497,16 25,16 C25.6399157,16 26.2642329,16.066785 26.8663619,16.1937651 L29.6560478,7.60799469 Z M31.5564265,8.23136644 C37.9607039,10.7372907 42.5787742,16.8061505 42.9726916,24 L33.9450712,24 C33.5919602,20.8057083 31.567137,18.1152543 28.764867,16.8229032 L31.5564265,8.23136644 Z M9.95986809,15.1072383 C8.08887835,17.945993 7,21.3458359 7,25 C7,28.5777749 8.04382888,31.9117505 9.84355889,34.7139991 L17.1501194,29.4054722 C16.4177357,28.103274 16,26.6004207 16,25 C16,23.4366998 16.3985823,21.9664935 17.0996673,20.6854608 L9.95986809,15.1072383 Z M11.0159458,36.3343461 C14.3161528,40.4010516 19.3545679,43 25,43 C26.6145534,43 28.1794577,42.787427 29.6682522,42.3887417 L26.5656108,33.8643045 C26.0571562,33.9534916 25.5340094,34 25,34 C22.3486026,34 19.9649901,32.8534766 18.3178992,31.0291664 L11.0159458,36.3343461 Z M31.5690999,41.763669 C37.9667956,39.2547009 42.5790341,33.1891033 42.9726916,26 L33.9450712,26 C33.5804436,29.2984725 31.4332809,32.0597063 28.4882316,33.299053 L31.5690999,41.763669 Z M44.975435,24 C44.4544037,13.4188885 35.7103702,5 25,5 C13.954305,5 5,13.954305 5,25 C5,36.045695 13.954305,45 25,45 C35.7103702,45 44.4544037,36.5811115 44.975435,26 L45,26 L45,24 L44.975435,24 Z M26,46.9776773 C27.306366,46.9192357 28.583087,46.746864 29.8204659,46.4702594 L30.4764083,48.9182697 L32.40826,48.4006316 L31.7502851,45.945036 C32.8441671,45.5927638 33.9006604,45.1571771 34.9122902,44.6457505 L36.2763068,47.0082966 L38.0083576,46.0082966 L36.6542912,43.6629847 C37.7873007,42.9539697 38.8511152,42.1446442 39.8332952,41.2474477 L41.5941441,43.0082966 L43.0083576,41.594083 L41.247506,39.8332314 C42.1446979,38.8510487 42.9540187,37.7872319 43.663029,36.6542204 L46.0083576,38.0082966 L47.0083576,36.2762458 L44.6457882,34.9122157 C45.2179526,33.7804324 45.6951923,32.592496 46.06704,31.3588736 L48.4907195,32.0082966 L49.0083576,30.0764449 L46.5559866,29.4193341 C46.7826695,28.3077527 46.9255295,27.1656782 46.9776773,26 L49.5,26 L49.5,24 L46.9776773,24 C46.9257198,22.8385849 46.7837141,21.7006103 46.5584739,20.5928805 L48.9883381,19.9418004 L48.4707,18.0099487 L46.0706292,18.6530458 C45.6988308,17.4170368 45.2212491,16.226835 44.6484043,15.0929609 L46.9883381,13.7419995 L45.9883381,12.0099487 L43.6661023,13.3506922 C42.9561347,12.2154865 42.1454853,11.1497012 41.2466589,10.1658414 L42.9883381,8.42416229 L41.5741245,7.00994873 L39.8323679,8.75170534 C38.8484321,7.85300729 37.7825821,7.04248948 36.6473223,6.33265615 L37.9883381,4.00994873 L36.2562873,3.00994873 L34.9049469,5.35053888 C33.8912536,4.83854669 32.8325511,4.40268951 31.736355,4.05048317 L32.3882404,1.61761368 L30.4563888,1.09997559 L29.806189,3.52655418 C28.5732672,3.25181193 27.3013423,3.08053954 26,3.02232268 L26,0.5 L24,0.5 L24,3.02232268 C22.6956708,3.08067316 21.4208943,3.25259873 20.1853222,3.52844759 L19.5319493,1.09002686 L17.6000977,1.60766495 L18.2553624,4.05314619 C17.1604646,4.40541697 16.1030033,4.84115046 15.0904715,5.35285361 L13.7320508,3 L12,4 L13.3483297,6.33537549 C12.214352,7.04477468 11.1496651,7.85464649 10.1667367,8.75252318 L8.41421356,7 L7,8.41421356 L8.75252318,10.1667367 C7.85464649,11.1496651 7.04477468,12.214352 6.33537549,13.3483297 L4,12 L3,13.7320508 L5.35285361,15.0904715 C4.78042586,16.2231619 4.30306853,17.4120784 3.93127137,18.6467311 L1.51763809,18 L1,19.9318517 L3.44284293,20.5864094 C3.21683931,21.6961783 3.07438142,22.8363233 3.0223231,23.9999906 L0.5,24 L0.5,26 L3.02232268,26 C3.07450367,27.1664204 3.21751248,28.3092071 3.44444652,29.4214575 L1,30.0764449 L1.51763809,32.0082966 L3.93358464,31.3609457 C4.30575247,32.5951869 4.7834208,33.7836866 5.35610553,34.9159606 L3,36.2762458 L4,38.0082966 L6.33918953,36.6577649 C7.04872066,37.7911299 7.85863754,38.8552264 8.75648443,39.8375986 L7,41.594083 L8.41421356,43.0082966 L10.1710732,41.251437 C11.1538133,42.1486635 12.2182224,42.9579435 13.3518489,43.6668256 L12,46.0082966 L13.7320508,47.0082966 L15.0941798,44.64902 C16.106216,45.160232 17.163119,45.5955559 18.257409,45.9475122 L17.6000977,48.4006316 L19.5319493,48.9182697 L20.1874198,46.4720206 C21.422337,46.7475958 22.6964089,46.9193599 24,46.9776773 L24,49.5 L26,49.5 L26,46.9776754 L26,46.9776773 Z M32,25 C32,21.1340068 28.8659932,18 25,18 C21.1340068,18 18,21.1340068 18,25 C18,28.8659932 21.1340068,32 25,32 C28.8659932,32 32,28.8659932 32,25 Z M25,26 C25.5522847,26 26,25.5522847 26,25 C26,24.4477153 25.5522847,24 25,24 C24.4477153,24 24,24.4477153 24,25 C24,25.5522847 24.4477153,26 25,26 Z" id="Combined-Shape"></path>
        </g>
    </g>
</svg>

<svg width="50" height="50" xmlns="http://www.w3.org/2000/svg"><path d="M29.656 7.608A18.025 18.025 0 0 0 25 7a17.963 17.963 0 0 0-13.848 6.5l7.098 5.546A8.978 8.978 0 0 1 25 16c.64 0 1.264.067 1.866.194l2.79-8.586zm1.9.623C37.961 10.737 42.58 16.806 42.973 24h-9.028a9.007 9.007 0 0 0-5.18-7.177l2.791-8.592zM9.96 15.107A17.916 17.916 0 0 0 7 25c0 3.578 1.044 6.912 2.844 9.714l7.306-5.309A8.96 8.96 0 0 1 16 25a8.96 8.96 0 0 1 1.1-4.315l-7.14-5.578zm1.056 21.227C14.316 40.401 19.355 43 25 43c1.615 0 3.18-.213 4.668-.611l-3.102-8.525A9.056 9.056 0 0 1 25 34a8.977 8.977 0 0 1-6.682-2.97l-7.302 5.304zm20.553 5.43c6.398-2.51 11.01-8.575 11.404-15.764h-9.028a9.008 9.008 0 0 1-5.457 7.3l3.081 8.464zM44.975 24C44.455 13.419 35.71 5 25 5 13.954 5 5 13.954 5 25s8.954 20 20 20c10.71 0 19.454-8.419 19.975-19H45v-2h-.025zM26 46.978a22.012 22.012 0 0 0 3.82-.508l.656 2.448 1.932-.517-.658-2.456a21.86 21.86 0 0 0 3.162-1.3l1.364 2.363 1.732-1-1.354-2.345a22.085 22.085 0 0 0 3.18-2.416l1.76 1.761 1.414-1.414-1.76-1.76a22.085 22.085 0 0 0 2.415-3.18l2.345 1.354 1-1.732-2.362-1.364a21.855 21.855 0 0 0 1.421-3.553l2.424.65.517-1.933-2.452-.657c.227-1.111.37-2.253.422-3.419H49.5v-2h-2.522a22.033 22.033 0 0 0-.42-3.407l2.43-.651-.517-1.932-2.4.643a21.855 21.855 0 0 0-1.423-3.56l2.34-1.351-1-1.732-2.322 1.34a22.085 22.085 0 0 0-2.42-3.184l1.742-1.742-1.414-1.414-1.742 1.742a22.085 22.085 0 0 0-3.185-2.42l1.341-2.322-1.732-1-1.351 2.34a21.86 21.86 0 0 0-3.169-1.3l.652-2.432-1.932-.518-.65 2.427A22.013 22.013 0 0 0 26 3.022V.5h-2v2.522c-1.304.059-2.58.23-3.815.506l-.653-2.438-1.932.518.655 2.445a21.86 21.86 0 0 0-3.165 1.3L13.732 3 12 4l1.348 2.335a22.085 22.085 0 0 0-3.181 2.418L8.414 7 7 8.414l1.753 1.753a22.085 22.085 0 0 0-2.418 3.181L4 12l-1 1.732 2.353 1.358a21.855 21.855 0 0 0-1.422 3.557L1.518 18 1 19.932l2.443.654A22.033 22.033 0 0 0 3.023 24H.5v2h2.522c.053 1.166.196 2.31.422 3.421L1 30.076l.518 1.932 2.416-.647c.372 1.234.85 2.423 1.422 3.555L3 36.276l1 1.732 2.34-1.35a22.086 22.086 0 0 0 2.416 3.18L7 41.594l1.414 1.414 1.757-1.757a22.085 22.085 0 0 0 3.18 2.416L12 46.008l1.732 1 1.362-2.359a21.86 21.86 0 0 0 3.163 1.299L17.6 48.4l1.932.517.655-2.446c1.235.276 2.51.447 3.813.506V49.5h2v-2.522zM32 25a7 7 0 1 0-14 0 7 7 0 0 0 14 0zm-7 1a1 1 0 1 0 0-2 1 1 0 0 0 0 2z" fill-rule="evenodd"/></svg>
